X:7
T:The Sprained Ankle
C:Declan Corey
L:1/8
M:4/4
K:G
|: GBBABAGF       | GggfgdBd    | ceec2BAG     |  F/E/DABcAFA  | 
   GBBABAGF       | GggfgdBd    | ceececAG     |1 FGAFGDD/E/F :|2 FDEFGAFA
|: E3BAB/A/GA     | B/c/dAFGFED | CBcAB,AdA    | FAfABAGF      
|  EBB/B/BAB/A/GA | B/c/dAFGFEG | F/E/DFAGAB^A | AGF=FE3D     :|

